X: 1
T: British Grenadiers II
P: piffero primo a0718
O: cfd bk 1
F: http://ancients.sudburymuster.org/mus/med/pdf/libertyC1.pdf
Z: 2019 John Chambers <jc:trillian.mit.edu>
M: 2/4
L: 1/16
K: D
D2 |\
DEFG A2(3(ABc) | dcBc A2A2 | ABcd e2g2 | fgaf d2dd |\
fdfd g2g2 | edeg f2f2 | dcdf e2e2 | dcBc d2 :|
|: (3(ABd) |\
e2e2 dcBA | e2e2 dcBA | a2ag f2e2 | a2ag f2e2 |\
fdfd g2g2 | edeg f2f2 | dcdf e2e2 | dcBc d2 :|
